src/icons/brand/glyph/BitbucketIcon.svg

<svg width="24" height="24" viewBox="0 0 24 24" fill="none" xmlns="http://www.w3.org/2000/svg">
<path d="M2.64834 3.0091C2.295 3.0041 2.005 3.28744 2 3.64076C2 3.67826 2.00166 3.71576 2.00834 3.75242L4.7275 20.2616C4.7975 20.6774 5.15666 20.9841 5.57916 20.9882H18.625C18.9433 20.9916 19.215 20.7624 19.2667 20.4499L21.9917 3.75824C22.0483 3.4099 21.8117 3.08074 21.4625 3.02408C21.425 3.01742 21.3883 3.01492 21.3517 3.01574L2.64834 3.0091ZM14.1 14.9399H9.935L8.80834 9.05328H15.1092L14.1 14.9399Z" fill="currentColor"/>
</svg>

<svg xmlns="http://www.w3.org/2000/svg" width="24" height="24" fill="currentColor" viewBox="0 0 24 24">
  <path d="M2.648 3.01a.64.64 0 0 0-.64.742l2.72 16.51c.07.415.429.722.851.726h13.046a.643.643 0 0 0 .642-.538l2.725-16.692a.64.64 0 0 0-.64-.742L2.648 3.009ZM14.1 14.94H9.935L8.808 9.053h6.301L14.1 14.94Z"/>
</svg>
